X:11005
T:Killarney Boys of Pleasure
R:Reel
C:Trad.
O:Ireland
M:4/4
L:1/8
Q:1/8=240
K:EDor
"Em"E2 (3FED E2 FA|"Bm"BFAF DEFA|"Em"B2 Bd "C"e2 ed|"Bm"BdAF DEFD|
"Em"E2 (3FED E2 FA|"Bm"BFAF DEFA|"Em"B2 Bd "C"e2 ed|1"Bm"BdAF "D"FEED:|2"Bm"BdAF "D"DEFA|
|:"Em"Befe Befe|"D"BdAF "D"DEFA|"Bm"f2 fe f2 fe|"D"dBAF DEFA|
"Em"Befe Befe|"D"BdAF DEFA|"Bm"f2 fe defe|"D"dBAF "Em"E4:|
